X: 18302
T: Humours Of Tulla, The
R: reel
M: 4/4
K: Amajor
A2EA FAEF|A2cA BAFG|A2EA FAEA|(3FGA Bc d2cB|
A2EA FAEF|A2cA BAFG|A2EA FAEA|(3FGA Bc d2cB||
ec c2 Ac c2|ec c2 dB B2|ec c2 AcBA|(3FGA Bc d2cd|
ec c2 Ac c2|ec c2 dB B2|ec c2 AcBA|(3FGA Bc d2cd||

